Papirus/22x22/panel/btsync-gui-paused.svg

<?xml version="1.0" encoding="UTF-8" standalone="no"?>
<svg xmlns="http://www.w3.org/2000/svg" height="22" width="22" version="1.1">
 <defs>
  <style type="text/css" id="current-color-scheme">
   .ColorScheme-Text { color:#5c616c; } .ColorScheme-Highlight { color:#5294e2; } .ColorScheme-ButtonBackground { color:#d3dae3; }
  </style>
 </defs>
 <g>
  <path style="fill:currentColor" class="ColorScheme-ButtonBackground" d="m 11,3 c -4.4180497,0 -8,3.5819503 -8,8 0,4.41805 3.5819503,8 8,8 4.41805,0 8,-3.58195 8,-8 0,-4.4180497 -3.58195,-8 -8,-8 z m -3.75,2 3,0 C 10.537546,5.0008689 10.810795,5.1252673 11,5.3417969 11.189205,5.1252673 11.462454,5.0008689 11.75,5 l 3,0 c 0.552291,0 1,0.4477091 1,1 l 0,1.9140625 C 15.951002,8.1960657 16.135248,8.4924964 16.28125,8.8125 L 17.5,8.34375 l -1,3.46875 -0.75,-0.417969 0,1.408203 0.59375,0.228516 C 16.186748,13.407254 15.980003,13.749215 15.75,14.074219 L 15.75,16 c 0,0.552291 -0.447709,1 -1,1 l -3,0 C 11.46277,16.999636 11.189572,16.875943 11,16.660156 10.810428,16.875943 10.53723,16.999636 10.25,17 l -3,0 c -0.5522909,0 -1,-0.447709 -1,-1 l 0,-1.939453 C 6.0479977,13.775544 5.8627516,13.478254 5.71875,13.15625 L 4.5,13.595703 l 1,-3.375 0.75,0.402344 0,-1.3945314 L 5.65625,9 C 5.8092517,8.6179957 6.0179974,8.2704568 6.25,7.9394531 L 6.25,6 c 0,-0.5522909 0.4477091,-1 1,-1 z M 8,6 C 7.446,6 7,6.446 7,7 l 0,8 c 0,0.554 0.446,1 1,1 l 1,0 c 0.554,0 1,-0.446 1,-1 L 10,7 C 10,6.446 9.554,6 9,6 L 8,6 Z m 5,0 c -0.554,0 -1,0.446 -1,1 l 0,8 c 0,0.554 0.446,1 1,1 l 1,0 c 0.554,0 1,-0.446 1,-1 L 15,7 C 15,6.446 14.554,6 14,6 l -1,0 z"/>
 </g>
</svg>

<?xml version="1.0" encoding="UTF-8" standalone="no"?>
<svg xmlns="http://www.w3.org/2000/svg" version="1.1" id="svg2">
 <defs id="defs12">
  <style type="text/css" id="current-color-scheme">
   .ColorScheme-Text { color:#5c616c; } .ColorScheme-Highlight { color:#5294e2; } .ColorScheme-ButtonBackground { color:#d3dae3; }
  </style>
 </defs>
 <g opacity="1" transform="matrix(.34783 0 0 .34783 2.6436 2.6457)" id="g4">
  <path style="fill:currentColor;stroke-width:1.00001121" class="ColorScheme-ButtonBackground" d="M 11 3 C 6.5819503 3 3 6.5819503 3 11 C 3 15.41805 6.5819503 19 11 19 C 15.41805 19 19 15.41805 19 11 C 19 6.5819503 15.41805 3 11 3 z M 7.25 5 L 10.25 5 C 10.537546 5.0008689 10.810795 5.1252673 11 5.3417969 C 11.189205 5.1252673 11.462454 5.0008689 11.75 5 L 14.75 5 C 15.302291 5 15.75 5.4477091 15.75 6 L 15.75 7.9140625 C 15.951002 8.1960657 16.135248 8.4924964 16.28125 8.8125 L 17.5 8.34375 L 16.5 11.8125 L 15.75 11.394531 L 15.75 12.802734 L 16.34375 13.03125 C 16.186748 13.407254 15.980003 13.749215 15.75 14.074219 L 15.75 16 C 15.75 16.552291 15.302291 17 14.75 17 L 11.75 17 C 11.46277 16.999636 11.189572 16.875943 11 16.660156 C 10.810428 16.875943 10.53723 16.999636 10.25 17 L 7.25 17 C 6.6977091 17 6.25 16.552291 6.25 16 L 6.25 14.060547 C 6.0479977 13.775544 5.8627516 13.478254 5.71875 13.15625 L 4.5 13.595703 L 5.5 10.220703 L 6.25 10.623047 L 6.25 9.2285156 L 5.65625 9 C 5.8092517 8.6179957 6.0179974 8.2704568 6.25 7.9394531 L 6.25 6 C 6.25 5.4477091 6.6977091 5 7.25 5 z M 8 6 C 7.446 6 7 6.446 7 7 L 7 15 C 7 15.554 7.446 16 8 16 L 9 16 C 9.554 16 10 15.554 10 15 L 10 7 C 10 6.446 9.554 6 9 6 L 8 6 z M 13 6 C 12.446 6 12 6.446 12 7 L 12 15 C 12 15.554 12.446 16 13 16 L 14 16 C 14.554 16 15 15.554 15 15 L 15 7 C 15 6.446 14.554 6 14 6 L 13 6 z" transform="matrix(2.8749677,0,0,2.8749677,-7.6002645,-7.6063019)" id="path6"/>
 </g>
</svg>
